KINDER
CUT[NIX IN DER GRUBE]
REG[Europa, Mitteleuropa, Deutschland, Thueringen, Schlesien]
KEY[K2407  08  C 2/4]
MEL[  5_56  5_3
    3  5556  5_30
    5556  5_3
    3  5556  5_30
    5_5_  +1__ //] >>
FCT[Kinder - Lied, Tanz -, Lauf - Spiel]
